public/logos/haskell.svg

<svg xmlns="http://www.w3.org/2000/svg" viewBox="0 0 17 12"><path fill="#453a62" d="m0 12 4-6-4-6h3l4 6-4 6"/><path fill="#5e5086" d="m4 12 4-6-4-6h3l8 12h-3L9.5 8.3 7 12"/><path fill="#8f4e8b" d="m13.7 8.5-1.4-2H17v2m-5.3-3-1.4-2H17v2"/></svg>

<?xml version="1.0" encoding="UTF-8"?>
<svg xmlns="http://www.w3.org/2000/svg" viewBox="0 0 17 12">
		<path fill="#453a62" d="M 0 12 L 4 6 L 0 0 L 3 0 L 7 6 L 3 12"/>
		<path fill="#5e5086" d="M 4 12 L 8 6 L 4 0 L 7 0 L 15 12 L 12 12 L 9.5 8.25 L 7 12"/>
		<path fill="#8f4e8b" d="M 13.66 8.5 L 12.333 6.5 L 17 6.5 L 17 8.5 M 11.666 5.5 L 10.333 3.5 L 17 3.5 L 17 5.5"/>
</svg>
